X: 2
T:Tom Moylan's Frolic
M:4/4
L:1/8
S:Connie Connel, Cork (fiddle)
R:Reel
D:Session tape - Milltown Malbay 1983
N:As played
Z:Bernie Stocks
K:G
Ad~d2 ed^cA-| Adde fa{b}ag | ed~d2 ed^cA-| ABcA GE~E2 | Ad~d2 ed^cA-| Addf a3g |\
ed~d2 ed^cA-| ABcA GE~E2 |: A2FA d3A | ~c3G EFGB | ADFA dABd | cAGE {G}EDD2 :|
<end>
<start>
